X: 2371
M: C
L: 1/8
K: G
(ud>uc) |\
vB>vG (3(GFG) D>G (3(GFG) | B>Gd>B g>dB>d |\
c>A (3(A^GA) F>A (3(AGA) | c>ed>c B>cA>c |\
c>ed>c B>cA>B | G2B2G2 ::\
(ud>c) |\
c>e (3(e^de) c>e (3(ede) |
c>ea>g f>ed>c |\
g>de>c B>cA>B | G2B2G2 :|


